X: 284
T: Da hudie
%%abc-version 2.0
%%abcx-abcm2ps-target-version 5.9.1 (29 Sep 2008)
%%abc-creator hum2abc beta
%%abcx-conversion-date 2013/10/02 07:52:29
%%abc-edited-by Helmut Schaffrath
%%humdrum-veritas 1379039416
%%humdrum-veritas-data 2171190008
%%continueall 1
%%barnumbers 0
L: 1/8
M: 2/4
K: D
z A A A/ B/ [I:setbarnb 1]| 
d> Bd2 | 
f a f e | 
f> e d d | 
z e c B | 
B F A3/ B/ | 
[M:3/4]f> c B/ c/ B/ A/F2 | 
[M:2/4]f> e d/ e/ c/ B/ | 
A B/ A/F2 | 
A d B A | 
f2B d | 
A B/ A/F2 | 
f> a d c/ B/ | 
A B/ A/F2 | 
f a d/ e/ c/ B/ | 
A B/ A/F2 | 
[M:3/4]A> B A B d d | 
[M:2/4]z d f f/ e/ | 
d f c e | 
c e c e | 
e c B d | 
f/ f/ f/ A/ e d/ c/ | 
B/ B/ B/ F/A4 |]  



